X:4
T: Hej! Csillag, csillag...
O: Lészped (Bákó), 1932
Q: 1/4=96
M:4/4
L:1/4
K:G
A2 B/A/ F<G | {F}AFD<E | D2 D/ z/ z |
d A d c | B<G B d | A2 A/ z/ z | 
d A d c | B/A/B/A/ G F | 
A2 B/A/G/F/ | AF D<E | D2 D/ z/ z | 

